X: 77
T: Ca La Breaza
O: Romania
S: Gypsy Camp vol. 2
M: 4/4
L: 1/8
Q: 1/4=180
K: Bb
%%MIDI program 42
%%MIDI beat 93 83 73
%%MIDI gchord HzzzIzGz
%%MIDI drum dzzzdzdz 37 37 37 90 50 40
%%MIDI drumon
|:"Bb" c/d/e2 e dBcB|c/d/e2 e dBcB      |
  c/d/e2 e dBcB    |f/e/d2c B2B2       :|
%%MIDI program 109
%%MIDI beat 60 50 40
%%MIDI gchordoff
 f8-|f8|\
|:d/e/f2 f d/e/f d2| d/e/f2 f d/e/f d2 |
  d/e/f2 f d/e/f d2| d/e/f2 f d/e/f B2 :|



